!!!!SEGMENT: pl-kk--kk-i-389--002-008_anonim--missa-no-2-dona.krn
!!!cenid: 17xx:2467
!!!COM: Anonim
!!!COM-rismID: pe30004985
!!!CDT:
!!!CNT:
!!!OPR: [Missa] No. 2.
!!!OTL: Dona
!!!OMV: 008
!!!PDT:
!!!AGN: Sacred; Mass
!!!YEC: Copyright 2022 Narodowy Instytut Fryderyka Chopina (https://polishscores.org)
!!!YEM: License CC-BY-4.0 (https://creativecommons.org/licenses/by/4.0)
!!!SMS-siglum: PL-Kk
!!!SMS-shelfmark: Kk.I.389
!!!SMS-variant:
!!!SMS-altvar:
!!!SMS-shelfwork: 002-008 M
!!!NIFC-rismSourceID: 1001146182
!!!NIFC-rismChildID: 1001146223
!!!NIFC-islandoraID: pl-kk:6976
!!!URL-pdf-islandora: https://repozytorium.nifc.pl/islandora/object/pl-kk%3A6976/datastream/PDF/view
!!!URL-scan: https://polish.musicsources.pl/pl/lokalizacje/galeria/rekopisy/5999/1 @EN{Scan on Polish Music Sources Website} @PL{Skany w portalu Dziedzictwo Muzyki Polskiej w otwartym dostępie}
!!!IIIF:
!!!ONB-nifc: UWAGA: S – skan 4-5, A – 23-24, T – 42-43 , B – 61-62. Części Mszy: Rorate, Kyrie, Gloria, Graduale, Sanctus, Benedictus, Agnus, Dona
!!!AIN: 1 alto 1 bass 1 soprn 1 tenor
!!!key: F
**kern	**text	**kern	**text	**kern	**text	**kern	**text
*part4	*part4	*part3	*part3	*part2	*part2	*part1	*part1
*staff4	*staff4	*staff3	*staff3	*staff2	*staff2	*staff1	*staff1
*I"Basso.	*	*I"Tenore.	*	*I"Alto.	*	*I"Soprano.	*
*I'[B]	*	*I'[T]	*	*I'[A]	*	*I'[S]	*
*ICvox	*	*ICvox	*	*ICvox	*	*ICvox	*
*Ibass	*	*Itenor	*	*Ialto	*	*Isoprn	*
*clefF4	*	*clefC4	*	*clefC3	*	*clefC1	*
*k[b-]	*	*k[b-]	*	*k[b-]	*	*k[b-]	*
*F:	*	*F:	*	*F:	*	*F:	*
*M3/2	*	*M3/2	*	*M3/2	*	*M3/2	*
=1	=1	=1	=1	=1	=1	=1	=1
*	*	*2\right	*	*2\right	*	*2\right	*
!!LO:TX:t=P:problem: all\right	!	!	!	!	!	!	!
!!LO:TX:t=P:problem:Dona nobis znajduje się jedynie w basie, w pozostałych głosach jest to melodia przepisana z Kyrie	!	!	!	!	!	!	!
1F	Do-	2A\	Do-	2f\	Do-	2cc\	Do-
.	.	2c\	.	2a\	.	2ff\	.
*2\right	*	*	*	*	*	*	*
2F\	-na	2B-\	-na	2b-\	-na	2dd\	-na
=2	=2	=2	=2	=2	=2	=2	=2
2F\	no-	2A/	no-	1a	no-	1cc	no-
2A\	.	2F/	.	.	.	.	.
2G\	-bis	2E/	-bis	2b-\	-bis	2dd\	-bis
=3	=3	=3	=3	=3	=3	=3	=3
2.F\	pa-	2.F/	pa-	2.a\	pa-	2.cc\	pa-
4E\	.	4G/	.	4b-\	.	4dd\	.
4F\	.	4A/	.	4a\	.	4cc\	.
4G\	.	4B-/	.	4g\	.	4b-\	.
=4	=4	=4	=4	=4	=4	=4	=4
2F\	-cem	2A\	-cem	2f\	-cem	2a\	-cem
2r	.	2r	.	2r	.	2r	.
2F\	do-	2A\	do-	4a\	do-	4cc\	do-
.	.	.	.	4f\	.	4a\	.
=5	=5	=5	=5	=5	=5	=5	=5
2c\	.	2G/	.	2f\	.	2a\	.
2C/	.	2c\	.	2e\	.	2g\	.
2E\	-na	2B-\	-na	4b-\	-na	4dd\	-na
.	.	.	.	4g\	.	4b-\	.
!	!	!	!	!	!	!LO:LB:g=original	!
=6	=6	=6	=6	=6	=6	=6	=6
2E\	no-	2c\	no-	2g\	no-	2b-\	no-
2F\	.	2c\	.	2f\	.	2a\	.
2F\	-bis	2c\	-bis	2a\	-bis	2cc\	-bis
!	!	!LO:LB:g=original	!	!LO:LB:g=original	!	!	!
=7	=7	=7	=7	=7	=7	=7	=7
1F	pa-	4c\	pa-	2a\	pa-	2cc\	pa-
.	.	4A\	.	.	.	.	.
.	.	2F/	.	4b-\	.	4dd\	.
.	.	.	.	4a\	.	4cc\	.
4BB-/	.	2d\	.	4g\	.	4b-\	.
4BBn/	.	.	.	4f\	.	4a\	.
=8	=8	=8	=8	=8	=8	=8	=8
1C	-cem,	1c	-cem,	1e	-cem,	1g	-cem,
2r	.	2r	.	2r	.	2r	.
=9	=9	=9	=9	=9	=9	=9	=9
2.C/	do-	2.c\	do-	2.e\	do-	2.g/	do-
4D\	.	4Bn\	.	4d\	.	4f/	.
2E\	-na	2G/	-na	2c\	-na	2e/	-na
=10	=10	=10	=10	=10	=10	=10	=10
2F\	no-	4c\	no-	4e\	no-	4g/	no-
.	.	4Bn\	.	4d\	.	4f/	.
2G\	.	1G	-bis	2c/	.	2e/	.
2GG/	-bis	.	.	2Bn/	-bis	2d/	-bis
=11	=11	=11	=11	=11	=11	=11	=11
2C/	pa-	2G/	pa-	4c\	pa-	4e/	pa-
.	.	.	.	4e\	.	4cc\	.
2GG/	-cem	2G/	-cem	2d\	-cem	2bn\	-cem
2r	.	2r	.	2r	.	2r	.
!	!	!	!	!	!	!LO:LB:g=original	!
=12	=12	=12	=12	=12	=12	=12	=12
2.C/	do-	2.c\	do-	2.g\	do-	2.ee\	do-
4D/	.	4Bn\	.	4f\	.	4dd\	.
2E\	-na	2G/	-na	2e\	-na	2cc\	-na
=13	=13	=13	=13	=13	=13	=13	=13
4E\	no-	2G/	no-	4g\	no-	4ee\	no-
4F\	-bis	.	.	4f\	-bis	4dd\	-bis
2G\	pa-	1G	-bis	2e\	pa-	2cc\	pa-
2GG/	.	.	.	2d\	.	2bn\	.
!	!	!	!	!LO:LB:g=original	!	!	!
=14	=14	=14	=14	=14	=14	=14	=14
2C/	-cem	2G/	do-	2e\	-cem	2cc\	-cem
4C\	do-	2G/	.	4e\	do-	2cc\	do-
4D\	.	.	.	4f\	.	.	.
4E\	.	2B-X\	-na	4g\	.	2cc\	-na
4C/	-na	.	.	4e\	-na	.	.
!	!	!LO:LB:g=original	!	!	!	!	!
=15	=15	=15	=15	=15	=15	=15	=15
2F\	no-	2c\	no-	2f\	no-	1cc	no-
2E\	.	2B-\	.	2g\	.	.	.
2F\	-bis	2A\	-bis	2a\	-bis	2cc\	-bis
=16	=16	=16	=16	=16	=16	=16	=16
2BB-/	pa-	2d\	pa-	4b-\	pa-	4dd\	pa-
.	.	.	.	8a\L	.	8cc\L	.
.	.	.	.	8g\J	.	8b-\J	.
1C	.	1c	.	2f\	.	2a\	.
.	.	.	.	2e\	.	2g\	.
=17	=17	=17	=17	=17	=17	=17	=17
2F\	-cem	2c\	-cem	2f\	-cem	2a\	-cem
4C\	do-	2G/	do-	4e\	do-	2b-\	do-
4D\	.	.	.	4f\	.	.	.
4E\	.	2B-X\	-na	4g\	.	2cc\	-na
4C/	-na	.	.	4e\	-na	.	.
=18	=18	=18	=18	=18	=18	=18	=18
2F\	no-	1c	no-	2a\	no-	1.ryy	.
2G\	.	.	.	2g\	.	.	.
2A\	-bis	2c\	-bis	2f\	-bis	.	.
=19	=19	=19	=19	=19	=19	=19	=19
2B-\	pa-	2B-\	pa-	4b-\	pa-	4dd\	pa-
.	.	.	.	8a\L	.	8cc\L	.
.	.	.	.	8g\J	.	8b-\J	.
!	!	!	!	!	!	!LO:LB:g=original	!
2c\	.	1c	.	2f\	.	2a\	.
2C/	.	.	.	2e\	.	2g\	.
=20	=20	=20	=20	=20	=20	=20	=20
1F	-cem	1c	-cem	1f	-cem	1a	-cem
2r	.	2r	.	2ryy	.	2r	.
==	==	==	==	==	==	==	==
*-	*-	*-	*-	*-	*-	*-	*-
!!!system-decoration: [(s1,s2,s3,s4)]
!!!ENC: Berenika Jozajtis
!!!END: 2023-11-09
!!!EED: Jan Barakat
!!!EEV: 2023-11-27
